X:0022
M:6/8
L:1/8
Q:3/8=120
K:D
f|DFE EFD|DFA AFA|BAB d2e|fdd d2:|
g|fed fad|fda fdB|AFA d2e|fee e2
g|fed fad|fda fdB|AFA d2e|fdd d2:|
g|fdf ece|dBd AFA|DFA d2e|fee e2
g|fdf ece|dBd AFA|DFA d2e|fdd d2:|

